symbols/web/screen_lock_rotation/materialsymbolssharp/screen_lock_rotation_wght500gradN25_40px.svg

<svg xmlns="http://www.w3.org/2000/svg" height="40" width="40"><path d="m29.792 19.667 2.166-2.125 4.292 4.291-10.792 10.75L8.042 15.167l10.791-10.75L23 8.583l-2.125 2.125-2.042-2.041-6.541 6.5 13.166 13.166 6.5-6.5Zm-7.75 18.625q-4.084 0-7.667-1.542t-6.25-4.229q-2.667-2.688-4.208-6.271-1.542-3.583-1.542-7.625h2.75q0 3.125 1.125 5.958 1.125 2.834 3.062 5.042 1.938 2.208 4.563 3.667 2.625 1.458 5.667 1.875l-4.917-4.917 2-1.958 9.5 9.5q-1 .25-1.979.375-.979.125-2.104.125Zm3.666-23.375V6.708h1.667v-1.75q0-1.333.937-2.27.938-.938 2.313-.938 1.333 0 2.271.938.937.937.937 2.27v1.75h1.709v8.209Zm3.25-8.209h3.292v-1.75q0-.75-.438-1.187-.437-.438-1.187-.438t-1.208.438q-.459.437-.459 1.187ZM22.208 18.5Z"/></svg>

<svg xmlns="http://www.w3.org/2000/svg" height="40" width="40"><path d="M29.792 19.667 31.958 17.542 36.25 21.833 25.458 32.583 8.042 15.167 18.833 4.417 23 8.583 20.875 10.708 18.833 8.667 12.292 15.167 25.458 28.333 31.958 21.833ZM22.042 38.292Q17.958 38.292 14.375 36.75Q10.792 35.208 8.125 32.521Q5.458 29.833 3.917 26.25Q2.375 22.667 2.375 18.625H5.125Q5.125 21.75 6.25 24.583Q7.375 27.417 9.312 29.625Q11.25 31.833 13.875 33.292Q16.5 34.75 19.542 35.167L14.625 30.25L16.625 28.292L26.125 37.792Q25.125 38.042 24.146 38.167Q23.167 38.292 22.042 38.292ZM25.708 14.917V6.708H27.375V4.958Q27.375 3.625 28.312 2.688Q29.25 1.75 30.625 1.75Q31.958 1.75 32.896 2.688Q33.833 3.625 33.833 4.958V6.708H35.542V14.917ZM28.958 6.708H32.25V4.958Q32.25 4.208 31.812 3.771Q31.375 3.333 30.625 3.333Q29.875 3.333 29.417 3.771Q28.958 4.208 28.958 4.958ZM22.208 18.5Q22.208 18.5 22.208 18.5Q22.208 18.5 22.208 18.5Z"/></svg>
